job-search/ClientApp/src/components/account/noavatar.svg

<svg width="160" height="160" viewBox="0 0 160 160" fill="none" xmlns="http://www.w3.org/2000/svg">
<path d="M81.1191 0.0074328C36.1288 -0.600202 -0.600231 36.1271 0.00743315 81.1152C0.607405 124.261 35.7404 159.392 78.8884 159.992C123.886 160.608 160.608 123.88 159.992 78.8923C159.4 35.7387 124.267 0.607376 81.1191 0.0074328ZM129.74 125.861C129.587 126.027 129.399 126.157 129.19 126.242C128.981 126.327 128.756 126.365 128.53 126.353C128.305 126.341 128.085 126.28 127.886 126.174C127.687 126.067 127.514 125.919 127.378 125.738C123.938 121.237 119.726 117.384 114.937 114.358C105.145 108.074 92.7378 104.613 80.0037 104.613C67.2697 104.613 54.8626 108.074 45.0707 114.358C40.282 117.383 36.0692 121.235 32.629 125.734C32.4939 125.915 32.3206 126.064 32.1215 126.17C31.9225 126.276 31.7025 126.337 31.4771 126.349C31.2518 126.361 31.0266 126.323 30.8176 126.238C30.6085 126.153 30.4208 126.023 30.2676 125.857C18.9822 113.675 12.5895 97.7571 12.3146 81.1536C11.6877 43.7302 42.3978 12.4063 79.8384 12.314C117.279 12.2217 147.693 42.6227 147.693 79.9999C147.706 97.0037 141.293 113.385 129.74 125.861V125.861Z" fill="#999999"/>
<path d="M80.0038 36.927C72.4195 36.927 65.5621 39.769 60.6893 44.9339C55.8164 50.0988 53.3819 57.2405 53.9319 64.9051C55.0472 79.9999 66.7429 92.3064 80.0038 92.3064C93.2647 92.3064 104.937 79.9999 106.076 64.909C106.645 57.3174 104.23 50.2411 99.276 44.9801C94.3839 39.7883 87.538 36.927 80.0038 36.927Z" fill="#999999"/>
</svg>

<svg width="160" height="160" fill="none" xmlns="http://www.w3.org/2000/svg"><path d="M81.12.007C36.128-.6-.6 36.127.006 81.115c.6 43.146 35.733 78.277 78.881 78.877 44.998.616 81.72-36.112 81.104-81.1C159.4 35.74 124.267.607 81.119.007Zm48.62 125.854a1.534 1.534 0 0 1-1.854.313 1.555 1.555 0 0 1-.508-.436 47.782 47.782 0 0 0-12.441-11.38c-9.792-6.284-22.2-9.745-34.933-9.745-12.734 0-25.141 3.461-34.933 9.745a47.795 47.795 0 0 0-12.442 11.376 1.532 1.532 0 0 1-1.152.615 1.534 1.534 0 0 1-1.21-.492 67.422 67.422 0 0 1-17.952-44.703c-.627-37.424 30.083-68.748 67.523-68.84 37.441-.092 67.855 30.309 67.855 67.686a67.423 67.423 0 0 1-17.953 45.861Z" fill="#999"/><path d="M80.004 36.927c-7.585 0-14.442 2.842-19.315 8.007-4.873 5.165-7.307 12.306-6.757 19.971C55.047 80 66.742 92.306 80.004 92.306c13.26 0 24.933-12.306 26.072-27.397.569-7.592-1.846-14.668-6.8-19.929-4.892-5.192-11.738-8.053-19.272-8.053Z" fill="#999"/></svg>
